X:2366
T:[C]Hyndaa yn Bwoailley 
C:Manx National Music 
C:Traditional
O:Isle of Man
Z:Kiaull Vannin 366 
M:2/4 
L:1/8 
Q:150 
K:G 
d|dB dB|d3 d|dg dB|d3 d|dB cA|BG GB|AG GF|G3:| 
A|AF AF|A3 A|BG BG|B3 B|cA cA|dB dB|ed cB|A3 || 

